CRM-system/src/assets/Facebook.svg

<svg width="20" height="20" viewBox="0 0 20 20" fill="none" xmlns="http://www.w3.org/2000/svg">
<path d="M11.6667 11.05H13.3333L14 8.25H11.6667V6.85C11.6667 6.129 11.6667 5.45 13 5.45H14V3.098C13.7827 3.0679 12.962 3 12.0953 3C10.2853 3 9 4.1599 9 6.29V8.25H7V11.05H9V17H11.6667V11.05Z" fill="white"/>
</svg>

<svg xmlns="http://www.w3.org/2000/svg" width="20" height="20" fill="none"><path fill="#fff" d="M11.667 11.05h1.666L14 8.25h-2.333v-1.4c0-.721 0-1.4 1.333-1.4h1V3.098A17.892 17.892 0 0 0 12.095 3C10.285 3 9 4.16 9 6.29v1.96H7v2.8h2V17h2.667v-5.95Z"/></svg>
